X: 251
M: C
L: 1/8
K: A
V: 1
|:\
(A/B/c) c<a (A/B/c) c>a | a>gf>e f>g~a2 | (A/B/c) c<a (A/B/c) ca | a>gf>e d>B~c2 :|
V: 2 clef=bass middle=d
|:\
[a2A2][a2A2] [a2A2][a2A2] | [a2A2][a2A2] [e2E2][a2A2] |\
[a2A2][a2A2] [a2A2][a2A2] | [a2A2][d2D2] [e2E2][a2A2] :|
[a2A2][g2G2] [a2A2][b2B2] | [a2A2][b2B2] [a2A2][d2D2] |\
[a2A2][g2G2] [a2A2][b2B2] | [a2A2][a2A2] [e2E2][a2A2] ||
[a2A2][g2G2] [a2A2][b2B2] | [a2A2][g2G2] [e2E2][a2A2] |\
[a2A2][e2E2] [d2D2][e2E2] | [a2A2][a2A2] [a2A2][a2A2] |]


